X: 24226
T: Lord Moira's Welcome To Scotland
R: strathspey
M: 4/4
K: Fmajor
|:FGFG Ac c2|AGAF GFDC|DFFG Ac c2|1 dfeg fdcA:|2 dfeg f3||
e|fgaf fd c2|defd cA A2|fgaf fd c2|dfeg f3 e|
fgaf fd c2|defd cAAG|FGFG Ac ~c2|dfeg f3 A||

